-----BEGIN PGP PUBLIC KEY BLOCK-----

mQINBGo2LtkBEAC+UKm28L2mNSWebIw3KGf37CkZlE8jpgQAFBuqkutx5JdmzXCv
MWf8xv4+WhT4wmcoGWAhck77f8imKUXO696zBhqu2sri4rwDs+pthuKMb2O3ZV/e
TrYV4pJuoO60e4wCLHHLhI8UGkdH8lerNppvgZNvcJ8EwlVlhDgb7bcFoNjBm2Vz
tOhnSWHjE+v8q9g+DUSKJ3htYa4Y49F9HU6HCGUnCa0HHAVsmOiGFHSGiVVbjX12
TPfDD7WKa11Z1qaOyUTiwzzxT3Vd1XZbHpBn/tEQyeAOlgbU1paEyD/WoAKcqMq9
Gua5mZn2YhPm0rT/NO/Wum0U6Wwbc8rRcqBF8DuhyKSQ4UXj6Q0gSojSMPjqm/nk
O71y/4asfWgtiO6olKErN7hjZY+pOpeI15wcysd0Yp8ed7FLZQBoZVcd9LUV8NXk
M99ZRIWdsnXbb9a8+UNK91qeJZ3L4avTvUWNP5c4HPnKWwQZS0fRafGkX2jxF9ew
K71LWzPxXrEkH1flpOt0Y6B8H3UpeV+eS4Mq9rUugKUE+oZF1631ILuXyyWIuwZl
oAl9SiljN7BeHDzbiyLa4lu5XTSGQKM6GwsULs/8hnT3FTFedLqHzCKCxBbyv8Vk
gvvvqshrYvSbWXGwwQ5H5UUJCaIbfeQRy8sDOTrTmKjF54dveI4+Mk0RJQARAQAB
tCtQYXZlbCBNaXNoYXJpbiA8bWFnZXJpc2RlZW1wZXJvckB5YW5kZXgucnU+iQJO
BBMBCgA4FiEEbUqO3kAcP2eOSVuGN9vfP4TrV0cFAmo2LtkCGwMFCwkIBwIGFQoJ
CAsCBBYCAwECHgECF4AACgkQN9vfP4TrV0eYiRAAovo4bXnqDpSTUs/x8KzLsyTp
nkMkobQxzeQtbfJcNz0WmBbCAkn3SdXIUk/qqKODxPm71ygTU/RUNFNM7yvjUeWR
gx8o2Vt+sMUVfsdvXdjq3O/O46FEkjCsF324OQLBP0ANPIEm8CpVNVg4T/IYBsDx
WV75vogDm8jRXtoXm4UXOBoVB9jfos11+HtsDJ1GXsEOCbVSlez/9crGJx58qiaT
/6x/wW7GM0pTnDD4+/KoRktHT0keQsLj6+6309mME5HhRnWJ6HWxQN3Rzg5dXD8j
HMOaCC4u9k9rAmdvC8yWqb3IIaXNiXDwIdS+iVs+YRjtEfAguTxDe1+rnhPozWaz
8BSZzp5QqfsDH2qpcETfWio6TExTgPFIvVZauJyM1ofcJH4/SKvhNXa8kzLX4vCm
e6OU+S/RNReP/5jXTpn16I2wFzjikY8cqgfwfzYn5LBk4y+L+zgcBN3I60mF/R+w
L7QU+v7rMrrI0QOOz08DvAQt2JU2WoRR4Zd6i7sOdcSV3hlNY6qKaiCLDQE0NJMc
AkGM12w/eJOASw+TcPjM9NkvqKNUp71mfvY0A50AmbmBqJEirFRpQlW2YyIcWvt/
UJEekJnkefPh6qPFVyrO6a7bB2r/3KzAzgBmado1YYf2L2x5EZ4hrDdaE4A4R0GA
DH0G+IU61UxqnQdvskK5Ag0EajYu2QEQAK6pSlvf9UnZugM3h12EE1NKnwjzjpHQ
Cf3hznmCbynb28KmKZ00Rdb0d92g/2Xp1pRm+IFSAYUuntvu3XGKGoEDGypCgfP5
iMIBqOU8b79+44BJBwsyt8iJEUUQEIJbg6pYHAFPqRYKGryhd+S5fnHZeUOxW2Ny
8ZLJDQ2SuXisz9kW16xiyy0OTwbkxOgpw7seUckHbQ7TDeXHYfJgbLHKmECI2apR
5Q1Slt6fTUylw1Mh7CFeD0rcPXinDnEjuTfFIXYPzxQ9BsP1JCtH0XF4z71iApcB
eyChmBAcpnIviOwvdHkpo1TqS4Ey8xwOszvvNohR94R3ZuWrHMiu9BwvZ8F41tY5
N5UrytopCnk02GIIqQb/uOMVptyghdUH2mQmZK/JeAPNr5GGaLAwYkD7aFjIXWkB
/8fEaaFwLkS7QHGQ+fJRcXvSYib9PYXCKjNHjefBic/5UaQbRh5CmLaqADuRghiv
NbtgPmlEnionlRmOXAaaDvDloNfyk0Cj+FEjZNSe5OeKlhGoWPNq9GGLJMz3ydyz
bQ9jJ47j2hBUbYo6u3wUw9yLedozI++nBHCvwgnSCbfMvUGx67eWjtAS5HB4nmFs
sBZGSG71O3PaKdbdpi+61L9q5K7T852kdqDwy3jXLEc0FBDfDdzV5pCf0ELUgE4T
ARCRVBxFKOExABEBAAGJAjYEGAEKACAWIQRtSo7eQBw/Z45JW4Y3298/hOtXRwUC
ajYu2QIbDAAKCRA3298/hOtXR+u/D/sG+PkHkob/JGFnKe9RquemQyGVaaBxlPRl
SvCEpBn95u7ybwsLf6mGwC3bbnzWsLFKQiUs0ClcQ8RKgYe7HTOVOBv9vFs84HY3
zfA4/mUsr5QNoJTfktWVA5uVGs5vwqeGbX8FmGE+67Xk7o1Gbz68OpmOOUPfRgLr
zwdbj6EYrxknKphR7Jp27FI1AfrivXGo2BUOJQtRGoXL2T35XLliykGB4j77K/g7
zMz/P/xyFkX1TUssnVkEKv3FR4vpsbd+ili4Y26oFiQ/9X8hmD+MbEzcLA3KaI2a
NLlSIQpYF8aMdlhyPJFZ1rL4XXf96JQ8+GSm9HxymN7oZ0mtMeLyM9pSw8Mg0aDi
KVdM0TTgWnG9i2pfxOdaHmsdoG/mLgGNO8QLYBphZ4IbUUiEvJpnLuTkHGcI2Bo0
kVim+CGB/ZvKw1mOVGkdZ0y1yj0v9MHFciU9wGze7Z/1ihftX3Uc+gYyz4lec6be
iL/rVlS7ALHx0gh6IhQAeIKHrZSaW5DlMAZ29cbwseJSFFk/42GM6dg8FhCzlAVN
Zdygz3sVMtge1UUnmQFqLGb58iYruOWFU7XI3uahh3hTBPVlv86gXZhVQVbbBWK2
jt3PhhxQoOIO2RUcVkHD/Gkvu9mVy5LtevSpULRDAUzuiB8Dy8myROinKHUFpNDg
qEBcibXwCA==
=5Vzd
-----END PGP PUBLIC KEY BLOCK-----
